X:1
T:Arabesques
T:2 Arabesques Ⅰ. 
T:CLAUDE DEBUSSY 
T:Ⅱ.
C:C.Debussy
%%score { ( 1 3 ) | ( 2 4 ) }
L:1/8
Q:1/4=110
M:4/4
K:E
V:1 treble nm="Piano" snm="Pno."
V:3 treble 
V:2 treble 
V:4 treble 
V:1
"^Andantino con moto"!p! x2 (3cef (3gdB x2[Q:1/4=115]"^\n"[Q:1/4=120][Q:1/4=115] | %1
 x2 (3Acd (3eBG x2[Q:1/4=115][Q:1/4=120][Q:1/4=115] | %2
[Q:1/4=110] z2!<(! (c2[Q:1/4=115] f2!<)!!p![Q:1/4=120] c2-[Q:1/4=115][Q:1/4=120] | %3
 c2)[Q:1/4=115]!<(! c2 f2!<)![Q:1/4=110] a2- | %4
[Q:1/4=105] (a2[Q:1/4=100] a4-[Q:1/4=60]!>(! (3a[Q:1/4=50]g[Q:1/4=30]f)!>)![Q:1/4=90][Q:1/4=80] | %5
"^a tempo"!pp![Q:1/4=110] z2[Q:1/4=120] (3(efc (3eBc (3GBF[Q:1/4=115] | (3GEG D4[Q:1/4=115] C2 | %7
 B,) z[Q:1/4=120] (3(efc (3eBc (3GBF | (3GEG D4[Q:1/4=115] C2) | %9
[Q:1/4=120]"_poco   a   poco   cresc." (3(B,A,B, C2- CEDE | C2) (G4 E2) | (3(DCD E2- EGFG | %12
!p!"_sempre  cresc.""^stringendo" E2)[Q:1/4=124] (c4[Q:1/4=128] (3^AcA) | %13
[Q:1/4=132] G2 (e4[Q:1/4=136] (3cec) |[Q:1/4=132] (g3 f)[Q:1/4=128] (g3 f) | %15
[Q:1/4=124]!mp! (g3 f)"^rit."[Q:1/4=100]!p! !tenuto!g[Q:1/4=90] !tenuto!f2[Q:1/4=80] !tenuto!g | %16
!p![Q:1/4=100] (=a4 g4[Q:1/4=110][Q:1/4=120] | f4 e4) |!<(! (d4 e2[Q:1/4=110] gb)!<)! | %19
!mp!!>(! (d4-!>)!!p! dc[Q:1/4=110]eg)[Q:1/4=120] | (B4-[Q:1/4=115] BAce[Q:1/4=120] | %21
[Q:1/4=120] G4)!p!"^rit." (3z[Q:1/4=115] (Ac[Q:1/4=110] (3e[Q:1/4=105]g[Q:1/4=100]f | %22
[Q:1/4=110] d2 G2)[Q:1/4=120]!p!"^a tempo" z (FAc | %23
 E4)!p![Q:1/4=115]"^rit." (3z (FA[Q:1/4=110] (3c[Q:1/4=105]e[Q:1/4=100]=d | %24
[Q:1/4=110] G2 F4[Q:1/4=90] =D2)[Q:1/4=100][Q:1/4=80] | %25
[K:bass][Q:1/4=110]"^a tempo"!p! (C8-[Q:1/4=120] | %26
[Q:1/4=115] C2[Q:1/4=110] C2[Q:1/4=105] E2[Q:1/4=100] C2) |[K:treble][Q:1/4=110] F8-[Q:1/4=120] | %28
 F2[Q:1/4=124]"^poco mosso""_cresc." (F2 A2[Q:1/4=128] F2 | B2[Q:1/4=132] G2) (B2[Q:1/4=124] G2 | %30
 ([Ac]8-) |[Q:1/4=120] [Ac]2[Q:1/4=115] [FA]2 [GB]2[Q:1/4=110] [Ac]2) | [Ac]8-[Q:1/4=124] | %33
!mp! c2!p![Q:1/4=120] (A2[Q:1/4=110] B2[Q:1/4=100]!<(! c2 | %34
[Q:1/4=110] d2[Q:1/4=115] e2[Q:1/4=120] f2[Q:1/4=125] g2 | %35
[Q:1/4=120] a2!<)!!mf![Q:1/4=110]!>(! b2[Q:1/4=100] c'2[Q:1/4=90] d'2!>)! | %36
!p! (f'4)[Q:1/4=120] (e'4)[Q:1/4=110] |[Q:1/4=100] e8-)[Q:1/4=90] || %38
[K:A]!p!"^Tempo rubato""^(un peu moins vite)"[Q:1/4=90] (3(ede c2- cB[Q:1/4=85]Bc | %39
[Q:1/4=90] A2 F4[Q:1/4=85] G2) |[Q:1/4=80]!<(! (FE!<)!!p!!>(! f4!>)![Q:1/4=75] e2) | %41
!p![Q:1/4=80]!<(! (FE!<)!!>(! g2-[Q:1/4=65] g!tenuto!b[Q:1/4=70]!tenuto!a!>)!!tenuto!f) | %42
!p![Q:1/4=90] (3(ede c2- cB[Q:1/4=85]Bc) |[Q:1/4=90] (A2 F2-!<(! (F)[Q:1/4=85]FFG)!<)! | %44
!p! (3(FE!>(!B, C4[Q:1/4=80] [CE]2)!>)! |[Q:1/4=75]!p! [B,E]6 z2[Q:1/4=70] | %46
[K:bass]"^Mosso"!p![Q:1/4=100] (3(D,F,A,[Q:1/4=110] (3CB,A,)[Q:1/4=120]"_cresc." (3(G,B,D (3FED) | %47
[K:treble][Q:1/4=130] (3(CEG (3BAG)[Q:1/4=140] (3(FAc (3edc) | %48
[Q:1/4=125] (3(Bdf!f! !>!a2-)[Q:1/4=120] (ag)[Q:1/4=115](fe) | %49
[Q:1/4=110] (fedc)"^rit."[Q:1/4=110] (d[Q:1/4=100]c[Q:1/4=90]B[Q:1/4=80]A) | %50
[K:bass]"^Mosso"!p![Q:1/4=100] (3(D,F,A,[Q:1/4=110] (3CB,A,)[Q:1/4=120]"_cresc." (3(G,B,D (3FED) | %51
[K:treble][Q:1/4=130] (3(CEG (3BAG)[Q:1/4=140] (3(FAc!mp! (3edc) | %52
!p![Q:1/4=125]!<(! (3(Bdf!<)!!f![Q:1/4=120] a2-[Q:1/4=110] ag[Q:1/4=100]fg) | %53
!p![Q:1/4=120]!<(! (3(Bdf!<)!!f![Q:1/4=110] a2-[Q:1/4=100] ag[Q:1/4=95]fg) | %54
!p!"^a tempo"[Q:1/4=90] (3(ede c2- cB[Q:1/4=85]"^\n\n"Bc |[Q:1/4=90] A2 F4[Q:1/4=85] G2 | %56
[Q:1/4=80]!<(! FE!<)!!p!!>(! f4!>)![Q:1/4=75] e2) | %57
!p![Q:1/4=80]!<(! FE!<)! (g2-[Q:1/4=65]!>(! g!tenuto!b[Q:1/4=70]!tenuto!a!>)!!tenuto!f) | %58
!p![Q:1/4=90] (3(ede c2- cB[Q:1/4=85]Bc |[Q:1/4=90] A2 G2-!<(! G[Q:1/4=85]FFG)!<)! | %60
!p! (3(FE!>(!B, C4[Q:1/4=80] [CE]2!>)! |[Q:1/4=75]!p! [B,E]6) z2[Q:1/4=70] | %62
[K:treble]"^risoluto"!f![Q:1/4=80] (3=G[Q:1/4=90]=FG E4 D2 | =C2 =G,4 C2 | %64
[Q:1/4=92]!<(! D2[Q:1/4=94] =F2[Q:1/4=96] =G2[Q:1/4=85] A=c!<)! | %65
!f![Q:1/4=95] [Bd]4[Q:1/4=90] =G4[Q:1/4=85] | %66
!mp![Q:1/4=80]"^rit.""_dim. molto" (3(=g[Q:1/4=90]=fg e4[Q:1/4=85] d2 | %67
[Q:1/4=90] e4[Q:1/4=85] =f4) |!p![Q:1/4=80] (3=g[Q:1/4=90]=fg e4[Q:1/4=85]"_più  dim." g2 | %69
[Q:1/4=80]!<(! (3^g^f[Q:1/4=80]g!<)! e4[Q:1/4=70][Q:1/4=60] g2[Q:1/4=30] || %70
[K:E]!p!"^Ⅰ. tempo"[Q:1/4=110]"^o" (=a4 g4[Q:1/4=115][Q:1/4=120][Q:1/4=115] | %71
[Q:1/4=110] f4 e4)[Q:1/4=115][Q:1/4=120][Q:1/4=115] | %72
[Q:1/4=110] z2!<(! (c2[Q:1/4=115] f2!<)!!p![Q:1/4=120] c2-[Q:1/4=115][Q:1/4=120] | %73
 c2)[Q:1/4=115]!<(! (c2 f2!<)![Q:1/4=110] a2) | %74
[Q:1/4=105] z2[Q:1/4=100]"^rit." (a4-[Q:1/4=60] (3a[Q:1/4=50]!tenuto!g[Q:1/4=30]!tenuto!f)[Q:1/4=90][Q:1/4=80] | %75
"^a tempo"!p![Q:1/4=110] z2[Q:1/4=120] (3(efc (3eBc (3GBF[Q:1/4=115] | (3GEG) (D4[Q:1/4=115] C2 | %77
 B,2)[Q:1/4=120] (3(efc (3eBc (3GBF | (3GEG D4[Q:1/4=115] C2) | %79
[Q:1/4=120]"_poco   a   poco   cresc." (3(B,A,B, C2- CEDE | C2) (G4[Q:1/4=115] E2) | %81
[Q:1/4=120] (3(DCD E2- EGFG | %82
!p!"_sempre cresc.""^stringendo" E2)[Q:1/4=124] (c4[Q:1/4=128] (3^AcA | %83
[Q:1/4=132] G2) (e4[Q:1/4=136] (3cec) |[Q:1/4=132] (g3 f)[Q:1/4=128] (g3 f) | %85
[Q:1/4=124]!mp! (g3 f)"^rit."[Q:1/4=100]!p! !tenuto!g[Q:1/4=90] !tenuto!f2[Q:1/4=80] !tenuto!g | %86
!p!"^a tempo"[Q:1/4=100] (a4 g4[Q:1/4=110][Q:1/4=120] | f4[Q:1/4=115] e4)[Q:1/4=110] | %88
[Q:1/4=115] (a2[Q:1/4=120] bc'!<(! agag- | g2 f2-[Q:1/4=115] f2[Q:1/4=110] e2-)!<)! | %90
[Q:1/4=115]!mp! e(=d[Q:1/4=120]ef dcdc- | c2 B4[Q:1/4=115][Q:1/4=110] A2-) | %92
[Q:1/4=115] (AG[Q:1/4=120]AG cA[Q:1/4=110] F2-) ||[M:2/4][Q:1/4=100]!<(! FE[Q:1/4=90]FE!<)! || %94
[M:4/4]!mf![Q:1/4=100]"_dim." A8[Q:1/4=110][Q:1/4=120] | (3abc' (3e'c'b (3aec (3BAE | %96
!mp!"^più  dim." G8[Q:1/4=115] |[Q:1/4=110] F8[Q:1/4=100][Q:1/4=90] | %98
!pp![Q:1/4=110] E2!p![Q:1/4=120] (3(e'f'c' (3e'bc' (3gbf | (3geg d4[Q:1/4=115] c2 | %100
[Q:1/4=110] B2)!pp![Q:1/4=120] (3(efc (3eBc (3GBF | (3GEG[Q:1/4=115] D4[Q:1/4=110] C2) | %102
[Q:1/4=115] (3z B,[I:staff +1]E,[I:staff -1] (3z C[I:staff +1]G,[Q:1/4=120][I:staff -1] (3z E[I:staff +1]B,[I:staff -1] (3z FC | %103
[Q:1/4=125] (3z!<(! BE (3z cG[Q:1/4=130] (3z eB (3z fc!<)! | %104
[Q:1/4=120] (3z!p! (be[Q:1/4=110] (3z!>(! c'g[Q:1/4=95] (3z e'b[Q:1/4=80] (3z f'c')!>)! | %105
!pp![Q:1/4=70] (!tenuto![e'g']2[Q:1/4=65] !tenuto![e'g']4[Q:1/4=60] !tenuto![e'g']2) | %106
[Q:1/4=20] E2[Q:1/4=80] z2 z4 |] %107
[K:G][M:4/4][Q:1/4=136]"^Allegretto scherzando"!p!"_et très léger" (3(e/f/e/).A (3(a/b/a/).d (3(e/f/e/).A (3(a/b/a/).d | %108
 (3(e/f/e/).B"_dim." (3(b/c'/b/).d (3(e/f/e/).B (3(b/c'/b/).d | %109
 (3(e/f/e/).c (3(c'/d'/c'/).d (3(e/f/e/).c (3(c'/d'/c'/).d | %110
 (3(e/f/e/).c[Q:1/4=132] (3(c'/d'/c'/).d[Q:1/4=128] (3(e/f/e/).c[Q:1/4=124] (3(c'/d'/c'/).d | %111
!pp![Q:1/4=136] (3(e/f/e/).B (3(d/e/d/).G (3(B/c/B/).D (3(A/B/A/).E | %112
!pp! (3(e/f/e/).B (3(d/e/d/).G (3(B/c/B/).D (3(A/B/A/).E | %113
!pp!!<(! (3(G/A/G/).D (3.E.G!p!.B!<)!!pp!!<(! (3(G/A/G/).D (3.E.G!p!.B!<)! | %114
!pp!!<(! (3(A/B/A/).E (e.d)!<)![Q:1/4=132]!>(! (!arpeggio!b.a)[Q:1/4=128].f.d!>)! | %115
!pp![Q:1/4=136] (3(e/f/e/).B (3(d/e/d/).G (3(B/c/B/).D (3(A/B/A/).E | %116
!pp! (3(e/f/e/).B (3(d/e/d/).G (3(B/c/B/).D (3(A/B/A/).E | %117
!pp!!<(! (3(G/A/G/).D (3.E.G.B!<)!!p! !>![EA] z z x | %118
!p!!<(! (3(G/A/G/).D (3.E.G.B!<)!!p! !>![EA]!<(! z z x!<)! | %119
!mf! (3(a/b/a/).f (3(d/e/d/).B!>(! (3(A/B/A/).F (3(D/E/D/).B,!>)! | %120
!p!!>(! .A,.D.B,.[^CF][Q:1/4=132] .[A,D]!>)! z[Q:1/4=128] z2 | %121
[K:bass][Q:1/4=136] (3(G,/A,/G,/).E,[K:treble]!mf! (3(G/A/G/)E- E!>(!.F.G.A!>)! | %122
 !arpeggio!.[CDFB]!<(!.c.d.e !>!.[Bdf]!<)!!mf!!>(!{/f}.a.g.d!>)! | %123
[K:bass] (3(G,/A,/G,/).E,[K:treble]!mf! (3(G/A/G/)E- E!>(!.F.G.A!>)! | %124
!<(! !arpeggio!.[CDFB].c.d.e[Q:1/4=132] !tenuto![Bdf]!<)!!mf!!>(!{/f}.a[Q:1/4=128].g.d!>)! | %125
!p![Q:1/4=136] (a2 g2) (a2 g2) | (a2 g4 d2) | (b2 a2)"_cresc." (b2 a2) | (b2 a4 e2) | %129
!f! (3(d'/e'/d'/).b (3(g/a/g/).e (3(d/e/d/).B (3(G/A/G/).E | %130
!f! (3(d'/e'/d'/).b (3(g/a/g/).e (3(d/e/d/).B (3(G/A/G/).E | %131
"_dim." (3(D/E/D/).B, z2[K:bass] (3(D,/E,/D,/).B,, z2 |"_molto dim." z4 .D,.E,.G,.B, | %133
[K:treble]!p![Q:1/4=132] D z z2!pp![Q:1/4=128] !arpeggio![DF^Ad] z z2 | %134
[Q:1/4=136] !>![GBdg]!f! (3(F/G/F/) !>!E(3(D/E/D/) !>!B,!>!D !>!E2- | E.A.c.e .F.A.d.f | %136
 !>![GBdg]!f! (3(F/G/F/) !>!E(3(D/E/D/) !>!B,!>!D !>!E2- | %137
 E.A.c.e[Q:1/4=132] z!<(! .A[Q:1/4=128].e.f!<)! | %138
!f![Q:1/4=136] !>![B^dfb] (3(^a/b/a/) !>!^g(3(f/g/f/) .d.f !>![Bdg]2 | %139
 !>![B^dfb] (3(^a/b/a/) !>!^g(3(f/g/f/) .d.f !>![Bdg]2 | %140
 !>![^dfb] z !>![dfb] z z2"_dim." .[ceac'] z | %141
 .[=dfad'] z .[dfad'] z z!p! (3(C/D/C/) .B,(3(A,/B,/A,/) |!pp! .G, z .G, z z2 !arpeggio!.[GBdg] z | %143
 z4 z2[K:bass]!p! (!tenuto!G,2- | (3G,A,B,) A,2 A,.C.B,.D |!<(! .C.E.D.=F .E.G.F.A!<)! | %146
!mp!!>(! .G.E.=F.D .E.C.D.B,!>)! |!p! (A,C) .B, z !tenuto!B,4 | %148
[K:treble]!<(! (3(B,CD)!<)!!p! C2-!>(! C.G.E.C!>)! |!p!!<(! (3(B,CD)!<)!!p! C2-!>(! C.G.E.C!>)! | %150
!p! .[A,D].[B,E].[C=F].[DG]"_cresc." .[EA].[FB].[Gc].[Ad] | %151
 .[Be].[c^f].[cf].[cf][Q:1/4=130] .[B^db]!p!.[Bdb][Q:1/4=124].[Bdb].[Bdb] | %152
!p![Q:1/4=136] (3(gab a2- a).c'.b.d' | .c'.e'!<(!.d'.=f' .e'.g'.f'.a'!<)! | %154
!mp! (g'e')!>(!(=f'd') (e'c')(d'b)!>)! |!p! (ac' .[=fb]) z !tenuto!b4 | %156
!<(! (3(B,^C^D C2- CF!<)!DC) |!p! (3(B,^C^D C2- CFDC) |!<(! (B,E)(^CF) (^D^G)(EA) | %159
[Q:1/4=132] (FB)(^G^c)[Q:1/4=128] (A^d)[Q:1/4=124](c!mp!d)!<)! | %160
!p![Q:1/4=136] (3(B,^C^D C2- CFDC) |!p! (3(B,^C^D C2- CFDA,) | (_B,_E=C=F =D=GE_A) | %163
!<(! (=F_BGc _Adc=f)!<)! |"_dim. molto" (3(_e/=f/e/)._B ._d.G .e.B.d.G | %165
 (3(_e/=f/e/)._B ._d.G .e.B.d.G |[Q:1/4=130] (3(_e/=f/e/)._B ._d.G .e.B.d.G | %167
[Q:1/4=120] (3(_e/=f/e/)._B ._d.G[Q:1/4=110] .e.B[Q:1/4=100].d.G | %168
[Q:1/4=136]"^a tempo"!pp! (3(=e/f/e/).B .d.G (3(B/c/B/).D .A.E | %169
 (3(=e/f/e/).B .d.G (3(B/c/B/).D .A.E | %170
!pp!!<(! (3(G/A/G/).D (3.E.G!p!.B!<)!!pp!!<(! (3(G/A/G/).D (3.E.G!p!.B!<)! | %171
!pp!!<(! (3(A/B/A/).E (e.d)!<)![Q:1/4=132]!>(! (!arpeggio!b.a)[Q:1/4=128].f.d!>)! | %172
!pp![Q:1/4=136] (3(e/f/e/).B d.G (3(B/c/B/).D A.E | (3(e/f/e/).B d.G (3(B/c/B/).D A.E | %174
!pp!!<(! (3(G/A/G/).D (3.E.G.B!<)!!p! !>![EA] z z x | %175
!p!!<(! (3(G/A/G/).D (3.E.G.B!<)!!p! !>![EA]!<(! z z x!<)! | %176
!mf!!mf! (3(a/b/a/).f .d.B!>(! (3(A/B/A/).F .D!>)!.B, |!p!!>(! .A,.D.B,.[^CF]!>)! .[A,D] z z2 | %178
[K:bass]!mf! (3(A,/B,/A,/).D,[K:treble] (3(A/B/A/)D-!p! DE=FG |!<(! (ABce) (!>!de=fa)!<)! | %180
[K:bass]!mp! (3(A,/B,/A,/).D,[K:treble] (3(A/B/A/)D-!<(! DE=FG | .A.B.c.e!<)! !>!.d.e.=f.a | %182
!mf!"_en dim." (3(g/a/g/).e x2[I:staff +1] .[^D^F].B[I:staff -1].^d.f | %183
 (3(g/a/g/).e[I:staff +1].c.[EG] .[=DF].B[I:staff -1].d.f | %184
 (3(e/f/e/).c[I:staff +1].A.[CE] .[B,D].^G[I:staff -1].B.d | %185
 (3(e/f/e/).c[I:staff +1].A.[CE] .[B,D].G[I:staff -1].B.d | %186
"^più dim."[I:staff +1] (CF)[I:staff -1].A.d[Q:1/4=128][I:staff +1] (CE)[I:staff -1].G.d | %187
[Q:1/4=120][I:staff +1] (CD)[I:staff -1].A.d[Q:1/4=100][I:staff +1] (D,D)[Q:1/4=80][I:staff -1].D[Q:1/4=40].d | %188
!pp!"^Meno mosso"[Q:1/4=120] (3(e'/f'/"_armonioso"e'/)b- b z (3(d'/e'/d'/)g- g z | %189
 (3(b/c'/b/)d- d z (3(a/b/a/)e- e z | (3(e'/f'/e'/)b- b z (3(d'/e'/d'/)g- g z | %191
 z2[Q:1/4=115] .d z[Q:1/4=110] .g z[Q:1/4=105] .b z | %192
[Q:1/4=120] (3(d'/e'/d'/)a- a z (3(c'/d'/c'/)=f- f z | (3(a/b/a/)d- d z (3(g/a/g/)d- d z | %194
 (3(d'/e'/d'/)a- a z (3(c'/d'/c'/)a- a z | %195
[Q:1/4=110] z2[Q:1/4=100] .c z[Q:1/4=90] .=f z[Q:1/4=80] .a !fermata!z | %196
[Q:1/4=136]!pp!"^a tempo" z8 |[K:bass] z .A,,.=F,,._B,, .G,,.C,.A,,.D, | %198
 (3(C,D,E,) D,2- D,.G,.E,.D, | .C,.=F,.D,.G, .E,.A,.F,._B, | %200
[K:treble]"_cresc." (3(CDE) D2- D.G.E.D | (3(CDE) D2- D.G.E.A |"_più cresc." .^F.=B.G.c .A.d.B.e | %203
 .G.c.A.d .B.e.c.f |"_molto cresc." (df) (eg) (fa) (gb) | %205
"_molto cresc." (ac')"^rit."[Q:1/4=130] (bd')[Q:1/4=120] (c'e')[Q:1/4=110] (d'f') | %206
!f![Q:1/4=136] [gbd'g'] (3F/G/F/ !>!E(3D/E/D/ .B,.D E2- | E.A.c.e .F.A.d.f | %208
 [GBdg] (3F/G/F/ !>!E(3D/E/D/ .B,.D E2- | E.A.c.e z .A.e.f | %210
!f! !>![B^dfb] (3(^a/b/a/) !>!^g(3(f/g/f/) !>!.d!>!.f !>![Bdg]2 | %211
!f! !>![B^dfb] (3(^a/b/a/) !>!^g(3(f/g/f/) .d.f !>![Bdg]2 | %212
 !>![^dfb] z !>![dfb] z z2"_dim." !wedge![ceac']2 | %213
 .[=dfad'] z .[dfad'] z z!p! (3(C/D/C/ .B,)(3(A,/B,/A,/ |!pp! .G,) z .G, z z2 !arpeggio!.[GBdg] z | %215
 !arpeggio!.[GBdg] z z2!ppp![Q:1/4=130] G, z z2 | G, z z2 z4 |] %217
V:2
!ped! (3(CEA x2!ped-up!!ped! x2 (3GDB,)!ped-up! | %1
!ped! (3(A,CF x2!ped-up!!ped! x2 (3EB,G,)!ped-up! | %2
[K:bass]!ped! (3F,A,C- C2!ped-up!!ped! (3E,A,C- C2!ped-up! | %3
!ped! (3D,A,C- C2!ped-up!!ped! (3C,A,E- E2!ped-up! | %4
!<(!!ped! (3(B,,F,A, (3C[K:treble]DF"^rit." (3A!<)!cd (3cBA)!ped-up! | %5
[K:bass]!pp!!ped! (E,,B,,E,G, B,G,E,B,,)!ped-up! |!ped! (E,,C,E,G, CG,E,C,)!ped-up! | %7
!pp!!ped! (E,,B,,E,G, B,G,E,B,,)!ped-up! |!ped! (E,,C,E,G, CG,E,C,)!ped-up! | %9
!pp!!ped! (F,,C,E,F, A,F,E,C,)!ped-up! |!ped! (G,,C,E,G, B,G,E,C,)!ped-up! | %11
!ped! (A,,E,F,A,)!ped-up!!ped! (CA,F,E,)!ped-up! | %12
!p!!ped! (^A,,E,G,C)!ped-up!!ped! (C,F,^A,E)!ped-up! | %13
!ped! (E,^A,CG)!ped-up!!ped! (F,CE^A)!ped-up! | %14
[K:treble]!ped! (^A,EGc)!ped-up!!ped! (CF^Ae)!ped-up! | %15
!p!!ped! (^A,EGc)!ped-up!!p!!ped! (CF^Ae)!ped-up! | %16
!p!!ped! (3(CE=A[I:staff -1] (3cef!ped-up!!ped! (3gdB[I:staff +1] (3GDB,)!ped-up! | %17
!ped! (3(A,CF[I:staff -1] (3Acd!ped-up!!ped! (3eBG[I:staff +1] (3EB,G,)!ped-up! | %18
!ped!!<(! (3(^^F,CD (3^ADC)!ped-up!!ped! (3(G,CE (3BEC)!<)!!ped-up! | %19
!p!!ped!!>(! (3(^^F,CD (3^ADC)!ped-up!!>)![K:bass]!p!!ped! (3(E,=A,C (3GCA,)!ped-up! | %20
!ped! (3(D,A,B, (3FB,A,)!ped-up!!ped! (3(C,F,A, (3EA,F,)!ped-up! | %21
!ped! (3(^B,,F,G, (3^DG,F,)!ped-up!!p!!ped! (3(C,F,A, (3EA,F,)!ped-up! | %22
!ped! (3(^B,,F,G, (3^DG,F,)!ped-up!!p!!ped! (3(=B,,F,A, (3=DA,F,)!ped-up! | %23
!ped! (3(B,,E,G, (3=DG,E,)!ped-up!!p!!ped! (3(B,,F,A, (3DA,F,)!ped-up! | %24
!ped! (3(B,,E,G, (3=DG,E,)!ped-up!!ped! (3(E,,B,,E, (3F,G,B,)!ped-up! | %25
!ped! (3(A,,,A,,-[I:staff -1]E, (3=G,A,B, (3A,E,G, (3A,B,A,) |[I:staff +1] A,,8!ped-up! | %27
!ped! (=D,,A,, F,6)!ped-up! |!ped! (B,,,B,,"_cresc."F,A, B,2) z2!ped-up! | %29
!ped! (G,,,G,,E,G, B,2) z2!ped-up! |!ped! (3(F,,,F,,C, (3E,F,A, (3C[I:staff -1]EF (3AGF | %31
 (E4)!ped-up!!ped![I:staff +1] D2 C2)!ped-up! | %32
!ped! (3(F,,,F,,C, (3E,F,A, (3C[I:staff -1]EF (3AG!p!F) | %33
 (E4!ped-up!!p!!ped![I:staff +1] F,4)!ped-up! |!<(!!ped! (.B,,2 .F,2 .A,2 .B,2!<)! | %35
 .D2[K:treble]!mp!!>(! .F2 .A2 .B2)!ped-up!!>)! |[K:bass]!p!!ped! (E,,,E,,B,,E, G,B,EG) | %37
 z4 E4!ped-up! ||[K:A]!ped! F6!ped-up!!ped! D2!ped-up! | %39
!ped! [F,C]2!ped-up!!ped! [B,,A,]6!ped-up! |!ped! B,,2!ped-up!!ped! (F4 E2)!ped-up! | %41
!ped! ([A,,E,]2!ped-up!!ped! [E,A,CE]6)!ped-up! |!ped! (F6!ped-up!!ped! =F2)!ped-up! | %43
!ped! ([F,C]2!ped-up!!ped! [B,,A,]4!ped-up!!ped! [A,,^D,]2)!ped-up! | %44
!ped! ([G,,E,]2!ped-up!!ped! [F,,E,]4!ped-up!!ped! [B,,,B,,]2!ped-up! | %45
!ped! [E,,B,,]4)!ped-up!!ped! (E,,2 E,2)!ped-up! |!ped! z2 (F,,4!ped-up!!ped! E,,2)!ped-up! | %47
!ped! z2 (([A,,,A,,]4!ped-up!!ped! [D,,D,]2))!ped-up! | %48
!ped! z2 ([B,,,B,,]2!ped-up!!ped! [F,B,DF]2)!ped-up!!ped! [E,,E,]2!ped-up! | %49
!ped! [A,,,A,,]2 E,2!ped-up!!ped! (FEDC)!ped-up! |!ped! z2 (F,,4!ped-up!!ped! E,,2)!ped-up! | %51
!ped! z2 (([A,,,A,,]4!ped-up!!ped! [D,,D,]2))!ped-up! | %52
!ped! z2!mp! [B,,,B,,] z!mp! !>![F,B,DF]4!ped-up! | %53
!ped! z2!mp! [B,,,B,,] z!mp! !>![F,B,DF]4!ped-up! |!ped! D8!ped-up!!ped!!ped-up!!ped!!ped-up! | %55
!ped! C8!ped-up!!ped!!ped-up! |!ped! B,,2!ped-up!!ped! (F4 E2)!ped-up! | %57
!ped! ([A,,E,]2!ped-up!!ped! [E,A,CE]6)!ped-up! |!ped! (F6!ped-up!!ped! (=F2)!ped-up! | %59
!ped! [F,C]4!ped-up!!ped! [B,,A,]2!ped-up!!ped! [A,,^D,]2)!ped-up! | %60
!ped! ([G,,E,]2!ped-up!!ped! [F,,E,]4!ped-up!!ped! [B,,,B,,]2)!ped-up! | %61
!ped! [E,,B,,]4!ped-up!!ped! (E,,2 E,2)!ped-up! | %62
!ped![I:staff -1] [=G,=C]2!ped-up!!ped! [A,C]4!ped-up!!ped![I:staff +1] [=F,B,]2!ped-up! | %63
!ped! [E,A,]2!ped-up!!ped! [D,=F,]4!ped-up!!ped! [E,A,]2!ped-up! | %64
!ped! =F,2!ped-up!!ped! A,2!ped-up!!ped! =G,2!ped-up!!ped! D,2!ped-up! | %65
!ped! =G,,,=G,,D,=F, =G,B,D=F!ped-up! | %66
[K:treble]!p!!ped!"_dim." ([E=G]4!ped-up!!ped! [=FA]4!ped-up! | %67
!ped! [=G_B]4!ped-up!!ped! [=FA]4)!ped-up! |!p!!ped!"_dim." =G8!ped-up! |!ped! ^G8!ped-up! || %70
[K:E]!p!!ped! (3(CEA[I:staff -1] (3cef!ped-up!!ped! (3gdB[I:staff +1] (3GDB,)!ped-up! | %71
!p!!ped! (3(A,CF[I:staff -1] (3Acd!ped-up!!ped! (3eBG[I:staff +1] (3EB,G,)!ped-up! | %72
[K:bass]!ped! (3F,A,C- C2!ped-up!!ped! (3E,A,C- C2!ped-up! | %73
!ped! (3D,A,C- C2!ped-up!!ped! (3C,A,E- E2!ped-up! | %74
!<(!!ped! (3(B,,F,A, (3C[K:treble]DF (3A!<)!c!>(!d (3c!tenuto!B!tenuto!A)!ped-up!!>)! | %75
[K:bass]!p!!ped! (E,,B,,E,G, B,G,E,B,,)!ped-up! |!ped! (E,,C,E,G, CG,E,C,)!ped-up! | %77
!pp!!ped! (E,,B,,E,G, B,G,E,B,,)!ped-up! |!ped! (E,,C,E,G, CG,E,C,)!ped-up! | %79
!pp!!ped! (F,,C,E,F, A,F,E,C,)!ped-up! |!ped! (G,,C,E,G, B,G,E,C,)!ped-up! | %81
!ped! (A,,E,F,A,!ped-up!!ped! CA,F,E,)!ped-up! | %82
!p!!ped! (^A,,E,G,C)!ped-up!!ped! (C,F,^A,E)!ped-up! | %83
!ped! (E,^A,CG)!ped-up!!ped! (F,CE^A)!ped-up! | %84
[K:treble]!ped! (^A,EGc)!ped-up!!ped! (CF^Ae)!ped-up! | %85
!p!!ped! (^A,EGc)!ped-up!!p!!ped! (CF^Ae)!ped-up! | %86
!p!!ped! (3(CEA[I:staff -1] (3cef!ped-up!!ped! (3gdB[I:staff +1] (3GDB,)!ped-up! | %87
!ped! (3(A,CF[I:staff -1] (3Acd!ped-up!!ped! (3eBG[I:staff +1] (3EB,G,)!ped-up! | %88
[K:treble]!ped! (3((CEA (3cAE)!ped-up!!ped!!<(! (3(B,DG (3BGD)!ped-up! | %89
!ped! (3(A,CF (3AFC)!ped-up!!ped! (3(G,)B,E (3GEB,)!<)!!ped-up! | %90
[K:bass]!p!!ped! (3(F,A,=D (3FDA,)!ped-up!!ped! (3(E,G,C (3ECG,)!ped-up! | %91
!ped! (3(=D,F,B, (3=DB,F,)!ped-up!!ped! (3(C,E,A, (3CA,E,)!ped-up! | %92
!ped! (3(B,,^E,G, (3B,G,E,)!ped-up!!ped! (3(A,,C,F, (3A,F,C,)!ped-up! || %93
[M:2/4]!ped! (3(G,,B,,E, (3G,E,B,,)!ped-up! || %94
[M:4/4]!ped! (3F,,C,E, (3F,A,B, (3C[I:staff -1]EA (3Bce |[I:staff +1] x8!ped-up! | %96
!ped! (3B,,,B,,D, (3G,B,D x4!ped-up! | %97
!ped! (3B,,,B,,D, (3A,B,[I:staff -1]D[I:staff +1] x4!ped-up! | %98
!pp!!ped! (E,,B,,!p!E,G, B,G,E,B,,)!ped-up! |!ped! (E,,C,E,G, CG,E,C,)!ped-up! | %100
!pp!"_una corda"!ped! (E,,B,,E,G, B,G,E,B,,)!ped-up! |!ped! (E,,C,E,G, CG,E,C,)!ped-up! | %102
!ped! (E,,2 B,,2 E,2 G,2) | (E,2 B,2 E2 G2) |[K:treble] (E2 B2 e2 g2) | %105
 (!tenuto![eb]2 !tenuto![eb]4 !tenuto![eb]2)!ped-up! |[K:bass]!ped! [E,,E,]2!ped-up! z2 z4 |] %107
[K:G][M:4/4][K:treble]!p! ([CDF]8 |"_dim." [B,DF]8 | [A,DF]8 |[K:bass] D,8) | %111
!pp! [G,,D,B,]2- [G,,D,B,] z z2 .[C,G,] z |!pp! [G,,D,B,]2- [G,,D,B,] z z2 .[C,G,] z | %113
!pp! .[B,,G,] z!p! .[C,G,] z!pp! .[B,,G,] z!p! .[C,G,] z | %114
 .[^C,G,A,] z!ped! !arpeggio![D,CF] z!ped![K:treble] !arpeggio![DAc] z z2 | %115
[K:bass]!pp! [G,,D,B,]2- [G,,D,B,] z z2 .[C,G,] z |!pp! [G,,D,B,]2- [G,,D,B,] z z2 .[C,G,] z | %117
!pp! .[B,,G,] z!p! .[C,G,] z!ped! !arpeggio![^C,G,A,]!ped-up![K:treble] .E.A!ped![I:staff -1]!arpeggio!!>![ea]!ped-up! | %118
[I:staff +1][K:bass]!pp! .[B,,G,] z!p! .[C,G,] z!ped! !arpeggio![^C,G,A,]!ped-up![K:treble] .E.A!ped![I:staff -1]!arpeggio!!>![ea]!ped-up! | %119
[I:staff +1] .[FAd] z .[EGB] z[K:bass] .[F,A,D] z .[E,G,B,] z | F,2 .G,.A, .F,.D,.A,,!pp!.D,, | %121
 .[A,,,A,,] z!mp!!ped! [A,,E,]2- [A,,E,]!ped-up! z z2 | %122
!p! .[D,,D,] z z2!mp! .[G,,,G,,] z .[D,G,B,D] z | %123
 .[A,,,A,,] z!mp!!ped! [A,,E,]2- [A,,E,]!ped-up! z z2 | %124
!p! .[D,,D,] z z2!mp! .[G,,,G,,] z .[D,G,B,D] z |[K:treble] (3(=F/G/F/).D .F.E (3(F/G/F/).D .F.E | %126
 (3(=F/G/F/).D .F.E .F.D.E.F | (3(G/A/G/).E .G.F!ped! (3(G/A/G/)!ped-up!.E .G.F | %128
!ped! (3(G/A/G/).E .G.F .G.A.B!ped-up!.^c | %129
 [DGBd] z z2[K:bass] z2[K:bass] !arpeggio!!tenuto!.[D,G,A,C] z | %130
[K:treble] [DGBd] z z2[K:bass] z2[K:bass] !arpeggio!!tenuto!.[D,G,A,C] z | %131
 z2 (3(G,/A,/G,/).E, z2 (3(G,,/A,,/G,,/).E,, | .D,,.E,,.G,,.B,, z4 | z4 !arpeggio![D,C] z z2 | %134
!ped! [G,,,G,,] z!ped-up! z2 (G,4 | [G,A,C]4 [A,CD]4) |!ped! [G,,,G,,] z!ped-up! z2 (G,4 | %137
 [G,A,C]4 [EF]4) |[K:treble]!ped! [B,^DF]2!ped-up! z2 z2!ped! !>![^G,B,^D^G]2!ped-up! | %139
!ped! !>![B,^DFB]2!ped-up! z2 z2!ped! !>![^G,B,^D^G]2!ped-up! | %140
 !>![B,^DFB] z !>![B,DFB] z z2 .[A,CEA] z | %141
 .[=DFAc] z .[DFAc] z[K:bass] z .[C,,C,].[B,,,B,,].[A,,,A,,] | %142
 .[G,,,G,,] z .[G,,,G,,] z z2 !arpeggio!.[D,G,B,D] z | z2 [G,,,G,,] z z4 | =F,6 F,2- | %145
 F,2 =F,4 F,2- | F,2 =F,4 F,2- | =F,2 F, z [D,F,]4 | ([=F,A,]2 [E,G,]6) | ([=F,A,]2 [E,G,]6) | %150
 .=F,.G,.A,.B, .C.D.E.=F |[K:treble] .G.A.A.A!ped! .[B,^FA].[B,FA]!ped-up!.[B,FA].[B,FA] | %152
 [D=FG]2 [EFG]4 .[DFG]2 | .[C=FG]2 .[B,FG]2 .[A,FG]2!ped! .[G,FG]2!ped-up! | %154
!ped! .[A,=FG]2!ped-up!!ped! .[B,FG]2!ped-up! .[CFG]2 .[DFG]2 | %155
 ([E=FG]2 .[DFG]) z!ped! [EFG]2[K:bass] (G,2!ped-up! | ^G,2 A,2 ^F,2 ^^F,2) | %157
 (^G,2 A,2 ^F,2 ^^F,2) | (^G,2 A,2 B,2 ^C2 | ^D2 E2 F2 ^^F2) | (^G,2 A,2 ^F,2 ^^F,2) | %161
 (^G,2 A,2 ^F,4) | (G,2 _A,2 _B,2 C2) |[K:treble] (D2 _E2 =F2 _A2) | ([_EG]8 | _B,8 | %166
[K:bass] _E,8 | _B,,4 _E,,4) | !arpeggio![G,,D,=B,]2- [G,,D,B,] z z2 .[C,G,] z | %169
 !arpeggio![G,,D,=B,]2- [G,,D,B,] z z2 .[C,G,] z | %170
!pp! .[B,,G,] z!p! .[C,G,] z!pp! .[B,,G,] z!p! .[C,G,] z | %171
 .[^C,G,A,] z!ped! !arpeggio![D,CF] z!ped![K:treble] !arpeggio![DAc] z z2 | %172
[K:bass]!pp!!ped! [G,,D,B,]2- [G,,D,B,]!ped-up! z z2 .[C,G,] z | %173
!pp!!ped! [G,,D,B,]2- [G,,D,B,]!ped-up! z z2 .[C,G,] z | %174
!pp! .[B,,G,] z!p! .[C,G,] z!ped! !arpeggio![^C,G,A,][K:treble] .E.A!ped![I:staff -1]!arpeggio!!>![ea] | %175
[I:staff +1][K:bass]!pp! .[B,,G,] z!p! .[C,G,] z!ped! !arpeggio![^C,G,A,]!ped-up![K:treble] .E.A!ped![I:staff -1]!arpeggio!!>![ea]!ped-up! | %176
[I:staff +1] .[FAd] z .[EGB] z[K:bass] .[F,A,D] z .[E,G,B,] z | F,2 .G,.A, .F,.D,.A,,!pp!.D,, | %178
 .[=F,,,=F,,] z z2 =F,4- | (C4!ped! [=FA]2)!ped-up! z2 | .[=F,,,=F,,] z z2 =F,4- | %181
 (C4!ped! [=FA]2)!ped-up! z2 |[K:treble] x2 .c.[EG] x4 | x8 | x8 | x8 | %186
[K:bass]!ped! A,2!ped-up! x2!ped! G,2!ped-up! x2 |!ped! F,2!ped-up! x2!ped! D,2 x2!ped-up! | %188
!pp!!ped! z2 (.D,.G, .B,) z[K:treble] (.D.E | .G z .B z)!pp! [CGAc]4!ped-up! | %190
[K:bass]!pp!!ped! z2 (.D,.G, .B, z[K:treble] .D.F | .B) z z2 z4!ped-up! | %192
[K:bass]!ped! z2 (.C,.=F, .A,) z[K:treble] (.C.D | .=F z .A z)!pp! [CFGB]4!ped-up! | %194
[K:bass]!pp!!ped! z2 (.C,.=F, .A, z .C.=F) | .A z z2 !fermata!z4!ped-up! | %196
 (3(!>!C,,D,,E,,) D,,2- D,,.G,,.E,,.D,, | .C,,2 .D,,2 .E,,2 .=F,,2 | .E,,2 .=F,,2 .G,,2 ._B,,2 | %199
 .A,,2 ._B,,2 .C,2 .D,2 | .E,2 .=F,2 .G,2 .^G,2 | .A,2 ._B,2 .=B,2 .C2 |[K:treble] (D2 E2 F2 G2) | %203
 (E2 F2 G2 A2) | ([CD]2 [B,D]2 [A,D]2 [G,D]2 |[K:bass] [F,D]2 [E,D]2 [E,D]2 [D,CD]2) | %206
 [G,,,G,,] z z2 (G,4 | [G,A,C]4 [A,CD]4) | [G,,,G,,] z z2 G,4 | [G,A,C]4 [CEF]4 | %210
[K:treble]!ped! [B,^DF]2!ped-up! z2 z2!ped! !>![^G,B,^D^G]2!ped-up! | %211
!ped! !>![B,^DFB]2!ped-up! z2 z2!ped! !>![^G,B,^D^G]2!ped-up! | %212
 !>![B,^DFB] z !>![B,DFB] z z2 !wedge![A,CEA]2 | %213
 .[=DFAc] z .[DFAc] z[K:bass] z .[C,,C,].[B,,,B,,].[A,,,A,,] | %214
 .[G,,,G,,] z .[G,,,G,,] z z2 !arpeggio!.[D,G,B,D] z | !arpeggio!.[D,G,B,D] z z2 [G,,,G,,] z z2 | %216
 [G,,,G,,] z z2 z4 |] %217
V:3
 x8 | x8 | x2 (3cFA- A2 (3cFA- | A2 (3cFA- A2 (3aAc | x8 | x8 | x8 | x8 | x8 | x8 | x8 | x8 | x8 | %13
 x8 | x8 | x8 | x8 | x8 | x8 | x8 | x8 | x8 | x8 | x8 | x8 |[K:bass] x8 | =G,8 | %27
[K:treble] z2 (3(A,B,C (3B,A,B, (3CB,A, | C4) ^D4- | D4 E4 | x8 | x8 | x8 | A2 (3FCE (3GDF (3AEG | %34
 (3BFA (3cGB (3dAc (3eBd | (3fce (3gdf (3aeg (3bf!p!a | [gb]8 | z8 ||[K:A] A6 G2 | F2 ^D6 | %40
 [G,=D]2 [Bd]6 | [A,C]2 [Ac]6 | A6 G2 | E4 ^D2 C2 | B,2 A,4 A,2 | (A,2 G,4) x2 |[K:bass] x8 | %47
[K:treble] x8 | x4 [Bd]2 [Gd]2 | [Ac]4 A4 |[K:bass] x8 |[K:treble] x8 | x4 [Bd]4 | x4 [Bd]4 | %54
 G4 F2 =F2 | F2 ^D6 | [G,=D]2 [Bd]6 | [A,C]2 [Ac]6 | A6 G2 | E4 ^D2 C2 | B,2 A,4 A,2 | %61
 (A,2!<(! G,4) x2!<)! |[K:treble] x8 | x8 |[I:staff +1] B,2[I:staff -1] =C2 C2 [C=F]2 | =F8 | %66
 =c8- | c8 | =c8- | c4 ^c4 ||[K:E] x8 | x8 | x2 (3cFA- A2 (3cFA- | A2 (3cFA- A2 (3aAc | x8 | x8 | %76
 x8 | x8 | x8 | x8 | x8 | x8 | x8 | x8 | x8 | x8 | x8 | x8 | z2 e2 z2 d2 | c4 B4 | z2 A2 z2 G2 | %91
 F4 E4 | =D4 C4 ||[M:2/4] B,4 ||[M:4/4] A8 | x8 | x4 (3GBd (3gbB | x4 (3ABd (3abB | x8 | x8 | x8 | %101
 x8 | x8 | x8 | x8 | x8 | x8 |][K:G][M:4/4] x8 | x8 | x8 | x8 | x8 | x8 | x8 | %114
 x2 [Ac] x3/4 x/8x/8 [df] x x2 | x8 | x8 | x8 | x8 | x8 | x8 | %121
[K:bass] x2[K:treble] C2- C x x7/4!mp! (3x/8-x/8-x/8- | x4 x7/8 x/8.x x2 | %123
[K:bass] x2[K:treble] C2- C x x7/4!mp! (3x/8-x/8-x/8- | x4 x7/8 x/8.x x2 | [Bd]4 [Bd]4 | [Bd]8 | %127
 [^ce]4 [ce]4 | [^ce]6 z2 | x8 | x8 | x4[K:bass] x4 | x8 |[K:treble] x8 | x8 | x8 | x8 | x8 | x8 | %139
 x8 | x8 | x8 | x4 x7/4 (3x/8-x/8-x/8- x2 | x6[K:bass] x2 | G,6 G,2- | G,2 G,4 G,2- | %146
 G,2 G,4 G,2- | G,2 .G, x G,4 |[K:treble] x8 | x8 | x8 | x8 | B2 c4 d2 | e2 =f2 g2 a2 | %154
 g2 =f2 e2 d2 | c2 .B x B4 | x4 A,2 ^A,2 | x4 A,2 ^A,2 | x8 | x4 A2 ^A2 | x4 A,2 ^A,2 | x4 A,4 | %162
 x8 | x8 | x8 | x8 | x8 | x8 | x8 | x8 | x8 | x2 [Ac] x3/4 x/8x/8 [df] x x2 | x8 | x8 | x8 | x8 | %176
 x8 | x8 |[K:bass] x2[K:treble] x6 | x8 |[K:bass] x2[K:treble] x6 | x8 | x8 | x8 | x8 | x8 | x8 | %187
 x8 | x8 | x8 | x8 | x8 | x8 | x8 | x8 | x8 | x8 |[K:bass] x8 | x8 | x8 | %200
[K:treble] G,2 A,2 _B,2 =B,2 | x8 | x8 | x8 | [FA]2 [GB]2 [Ac]2 [Bd]2 | [ce]2 [df]2 [eg]2 [fa]2 | %206
 x8 | x8 | x8 | x8 | x8 | x8 | x8 | x8 | x4 x7/4 (3x/8-x/8-x/8- x7/4 (3x/8-x/8-x/8- | x8 | x8 |] %217
V:4
 x8 | x8 |[K:bass] F,4 E,4 | D,4 C,4 | x8/3[K:treble] x16/3 |[K:bass] x8 | x8 | x8 | x8 | x8 | x8 | %11
 x8 | x8 | x8 |[K:treble] x8 | x8 | x8 | x8 | x8 | x4[K:bass] x4 | x8 | x8 | x8 | x8 | x8 | %25
 x2 A,,6- | x8 | x8 | x8 | x8 | x8 | x8 | x8 | x8 | x8 | x2[K:treble] x6 |[K:bass] x8 | x8 || %38
[K:A] B,C D4 E,2 | x8 | (E,,2 [G,D]6) | x8 | (B,C D6) | x8 | x8 | x8 | x8 | x8 | x8 | x8 | x8 | %51
 x8 | x8 | x8 | (E,4 F,2 G,2 | A,4 [B,,A,]4) | (E,,2 [G,D]6) | x8 | (B,C D6) | x8 | x8 | x8 | %62
 [E,,=C,]2 [=F,,C,]4 =G,,2 | A,,2 B,,4 A,,2 | =G,,2 =F,,2 E,,2 D,,2 | x8 |[K:treble] x8 | x8 | %68
 (E8- | E6- E!pp!^D) ||[K:E] x8 | x8 |[K:bass] F,4 E,4 | D,4 C,4 | x8/3[K:treble] x16/3 | %75
[K:bass] x8 | x8 | x8 | x8 | x8 | x8 | x8 | x8 | x8 |[K:treble] x8 | x8 | x8 | x8 | %88
[K:treble] C4 B,4 | A,4 G,4 |[K:bass] F,4 E,4 | =D,4 C,4 | B,,4 A,,4 ||[M:2/4] G,,4 ||[M:4/4] x8 | %95
 x8 | x8 | x8 | x8 | x8 | x8 | x8 | x8 | x8 |[K:treble] x8 | x8 |[K:bass] x8 |] %107
[K:G][M:4/4][K:treble] x8 | x8 | x8 |[K:bass] x8 | x8 | x8 | x8 | %114
 x7/4 x/8x/8 x7/4 x/8x/8[K:treble] x4 |[K:bass] x8 | x8 | %117
 x2 x7/4!p! x/8x/8 x2[K:treble] x7/8 x/8 x |[K:bass] x2 x7/4!p! x/8x/8 x2[K:treble] x7/8 x/8 x | %119
 x4[K:bass] x4 | A,,4 x4 | x8 | x8 | x8 | x8 |[K:treble] x8 | x8 | x8 | x8 | %129
 x4[K:bass] x7/4 (3x/8-x/8-x/8-[K:bass] x2 |[K:treble] x4[K:bass] x7/4 (3x/8-x/8-x/8-[K:bass] x2 | %131
 x8 | x8 | x8 | x4 D,4- | D,8 | x4 D,4- | D,4 C4 |[K:treble] x8 | x8 | x8 | x4[K:bass] x4 | %142
 x4 x7/4 (3x/8-x/8-x/8- x2 | x8 | D,2 E,4 D,2 | C,2 B,,2 A,,2 G,,2 | A,,2 B,,2 C,2 D,2 | %147
 E,2 D,2 z2 G,,2 | x4 G,, z G,,, z | x4 G,, z G,,, z | x8 |[K:treble] x8 | x8 | x8 | x8 | %155
 x6[K:bass] x2 | B,,8 | B,,8 | B,,8 | B,8 | B,,8 | B,,8 | _B,,8 |[K:treble] _B,8 | x8 | x8 | %166
[K:bass] x8 | x6 x7/4 x/8-x/8- | x6 x7/4 x/8-x/8- | x6 x7/4 x/8x/8 | x8 | %171
 x7/4 x/8x/8 x7/4 x/8x/8[K:treble] x4 |[K:bass] x8 | x8 | %174
 x2 x7/4!p! x/8x/8 x2[K:treble] x7/8 x/8 x |[K:bass] x2 x7/4!p! x/8x/8 x2[K:treble] x7/8 x/8 x | %176
 x4[K:bass] x4 | A,,4 x4 | x8 | (F,4 !>!B,2) x2 | x8 | (F,4 !>!B,2) x2 |[K:treble] x8 | x8 | x8 | %185
 x8 |[K:bass] x8 | x8 | [G,,,G,,]8[K:treble] | x8 |[K:bass] [G,,,G,,]8[K:treble] | x8 | %192
[K:bass] [=F,,,=F,,]8[K:treble] | x8 |[K:bass] [=F,,,=F,,]8 | x8 | x8 | x8 | x8 | x8 | x8 | x8 | %202
[K:treble] D8 | D8 | x8 |[K:bass] x8 | x4 D,4- | D,4 x4 | x4 D,4- | D,4 x4 |[K:treble] x8 | x8 | %212
 x8 | x4[K:bass] x4 | x4 x7/4 (3x/8-x/8-x/8- x7/4 (3x/8-x/8-x/8- | x8 | x8 |] %217

